!!!ONB: MCCC : IEG0086_03 : Extracted Monophonic Melody
!!!COM: Grieg, Edvard
!!!OPR: Piano Sonata
!!!OMV: 3
!!!SCT: Op.7
!!!ODT: 1865///
**kern
*staff1
*IPiano
=1
*clefG2
*k[f#]
*e:
*M3/4
4ee
2b
=2
12dd
12cc
12b
2b
=3
4b
2d#
=4
12e
12f#
12g
2g
=5
12g
12f#
12d#
2b
=6
4r
12cc
12b
12g
2ee
=7
12gg
12ff#
12cc#
2aa#
=8
12gg
12ff#
12cc
4bb
4bb
=9
4eee
2bb
=10
12ddd
12ccc
12bb
2bb
=11
4bb
2dd#
=12
12ee
12ff#
12gg
2gg
=13
12gg
12ff#
12dd#
2bb
=14
12ccc
12bb
12gg
12bb
12aa
12ff#
12ff#
12ee
12cc
=15
12dd
12cc
12a
12cc
12b
12g
12g
12f#
12d#
=16
4f#
4e
4r
=17
4r
2dd[
=18
12dd]
12cc
12e
8.cc
16dd
4cc
=19
8b
8r
2b[
=20
12b]
12a
12c
8.a
16b
4a
=21
8g
8r
2g[
=22
12g]
12f#
12B
8.f#
16g
4f#
=23
8e
8r
2e[
=24
12e]
12d#
12F#
4d#
12f#
12e
12G
=25
12e
12d#
12F#
4d#
12f#
12e
12G
=26
12e
12d#
12F#
12f#
12e
12G
12g
12f#
12B
=27
12cc
12b
12e
12dd
12cc#
12e
12gg
12ff#
12b
=28
4eee
2b
=29
12dd
12cc
12a
2a
=30
4b
2f#
=31
12a
12g
12e
2e
=32
4f#
=33
12g
12f#
12d#
4.d#
8e
=34
12f#
12d#
12e
4e
4a
=35
4b
2ee
=36
8ff
8r
4.dd#
8ee
=37
12ff
12ee
12dd#
4.dd#
8ee
=38
2r
12ff
12dd#
12ee
4ee
4aa
=39
4bb
4eee
4r
=40
*k[f#c#g#d#]
*E:
*M9/8
4gg#
8r
2.bb
=41
4gg#
8r
2.bb
=42
4gg#
8b
8ee
8gg#
8bb
4eee
8fff#
=43
4fff#
8ddd#
4bb
8r
4r
8r
=44
8gg#
8ee
8gg#
2.bb
=45
8gg#
8ee
8gg#
2.bb
=46
4gg#
8b
8ee
8gg#
8bb
4eee
8fff#
=47
4.fff#
4eee
8r
4r
8r
=48
4g#
8r
2.b
=49
4g#
8r
2.b
=50
4g#
8B
8e
8g#
8b
4ee
8ff#
=51
4ff#
8dd#
4b
8r
4r
8r
=52
8g#
8e
8g#
2.b
=53
8g#
8e
8g#
2.b
=54
4g#
8B
8e
8g#
8b
4ee
8ff#
=55
4.ff#
4ee
8r
4r
8r
=56
4r
8r
16.G#
16.B
16.d#
16.g#
4g#
8f##
=57
4r
8r
16.B
16.d#
16.g#
16.b
4b
8a#
=58
4r
8r
16.d#
16.g#
16.b
16.dd#
4dd#
8cc#
=59
4a#
8r
2.g#
=60
4r
8r
16.B
16.d#
16.f#
16.b
4b
8a#
=61
4r
8r
16.d#
16.f#
16.b
16.dd#
4dd#
8cc#
=62
4r
8r
16.f#
16.b
16.dd#
16.ff#
4ff#
8ee
=63
4cc#
8r
2.b
=64
4g#
8r
2.b
=65
4g#
8r
2.b
=66
4g#
8B
8e
8g#
8b
4ee
8ff#
=67
4ff#
8dd#
4b
8r
4r
8r
=68
8gg#
8ee
8gg#
2.bb
=69
8gg#
8ee
8gg#
2.bb
=70
4gg#
8b
8ee
8gg#
8bb
4eee
8fff#
=71
4.fff#
4eee
8r
4r
8r
=72
*k[f#]
*e:
*M3/4
4ee
2b
=73
12dd
12cc
12b
2b
=74
4b
2d#
=75
12e
12f#
12g
2g
=76
4r
12g
12f#
12d#
2b
=77
12cc
12b
12g
2ee
=78
12gg
12ff#
12cc#
2aa#
=79
12gg
12ff#
12cc
4bb
4bb
=80
4eee
2b
=81
12dd
12cc
12a
2a
=82
4b
2f#
=83
12a
12g
12e
2e
=84
4f#
=85
12g
12f#
12d#
4.d#
8e
=86
12f#
12d#
12e
4e
4a
=87
4b
2ee
=88
8ff
8r
4.dd#
8ee
=89
4r
12ff
12ee
12dd#
4.dd#
8ee
=90
2r
12ff
12dd#
12ee
4ee
4aa
=91
4bb
4eee
4r
==
*-
